incomeartour/img/icons/mountains.svg

<svg width="29" height="22" viewBox="0 0 29 22" fill="none" xmlns="http://www.w3.org/2000/svg">
<path opacity="0.9" d="M21.7388 8.18962L17.6728 0.971876C17.5929 0.827158 17.4757 0.706505 17.3334 0.622482C17.191 0.538459 17.0287 0.494141 16.8634 0.494141C16.6981 0.494141 16.5358 0.538459 16.3935 0.622482C16.2511 0.706505 16.1339 0.827158 16.054 0.971876L12.098 8.11057L13.5656 9.84626L16.0265 7.38536C16.2198 7.19226 16.4819 7.08381 16.7551 7.08381C17.0284 7.08381 17.2905 7.19226 17.4838 7.38536L20.0238 9.90469L21.7388 8.18962ZM5.66044 19.659L11.0153 10.0353L12.7338 12.0391C12.826 12.1471 12.9396 12.235 13.0673 12.2971C13.1951 12.3592 13.3343 12.3942 13.4762 12.4H13.5175C13.6542 12.4003 13.7897 12.3734 13.916 12.3209C14.0422 12.2684 14.1568 12.1913 14.253 12.0941L16.7723 9.57474L19.2917 12.0941C19.485 12.2872 19.7471 12.3956 20.0203 12.3956C20.2936 12.3956 20.5556 12.2872 20.749 12.0941L22.7871 10.0559L28.2142 19.6555C28.2975 19.7992 28.3416 19.9623 28.3418 20.1285C28.342 20.2946 28.2985 20.4578 28.2155 20.6018C28.1326 20.7457 28.0132 20.8652 27.8693 20.9483C27.7255 21.0314 27.5623 21.0751 27.3962 21.075H6.49564C6.32857 21.0778 6.16375 21.0362 6.01797 20.9546C5.8722 20.8729 5.75067 20.7541 5.66578 20.6101C5.5809 20.4662 5.53568 20.3024 5.53474 20.1353C5.53381 19.9682 5.57718 19.8038 5.66044 19.659ZM0.975784 16.5656L8.98404 2.44292C9.04685 2.33291 9.13764 2.24146 9.2472 2.17786C9.35675 2.11426 9.48118 2.08075 9.60786 2.08075C9.73454 2.08075 9.85897 2.11426 9.96852 2.17786C10.0781 2.24146 10.1689 2.33291 10.2317 2.44292L11.5549 4.73198L4.36812 17.638H1.61851C1.49268 17.6394 1.36872 17.6075 1.25915 17.5457C1.14957 17.4838 1.05827 17.3941 0.994455 17.2857C0.930641 17.1772 0.896582 17.0539 0.895718 16.928C0.894854 16.8022 0.927217 16.6784 0.989534 16.5691L0.975784 16.5656Z" fill="black"/>
</svg>

<svg width="29" height="22" fill="none" xmlns="http://www.w3.org/2000/svg"><path opacity=".9" d="M21.739 8.19L17.673.972a.925.925 0 00-1.619 0L12.098 8.11l1.468 1.735 2.46-2.46a1.031 1.031 0 011.458 0l2.54 2.519 1.715-1.715zM5.66 19.659l5.355-9.624 1.719 2.004a1.032 1.032 0 00.742.361h.041a1.032 1.032 0 00.736-.306l2.52-2.52 2.519 2.52a1.03 1.03 0 001.457 0l2.038-2.038 5.427 9.6a.945.945 0 01-.818 1.419h-20.9a.946.946 0 01-.836-1.416zM.976 16.566L8.984 2.443a.718.718 0 011.248 0l1.323 2.289-7.187 12.906h-2.75a.715.715 0 01-.628-1.069l-.014-.003z" fill="#000"/></svg>
